X:1
T:Title
%%score ( 1 2 ) { 3 | 4 }
L:1/8
Q:1/4=102
M:4/4
K:Ab
V:1 treble nm="Grand Piano, Soprano"
V:2 treble 
V:3 bass nm="Choir Pad, Bass"
V:4 bass 
V:1
 [CE]3 [CE] [CE]>[CE] [DF]>[CE] | A2 z2 z4 | z4 A2 z2 | [Ec]6 z2 | [CE]3 [CE] [CE]>[CE] [DF]>[CE] | %5
w: By~Stephen~Van~Rensselaer~Ford * * * * *|||||
 A2 z2 z4 | [FB]4 [EA]2 [DG]2 | [CA]6 z2 | [EB]3 [EB] [EB]>[EB] [EB]>[Ec] | [Ed]4 [EB]4 | %10
w: |||||
 [Ec]3 [Ec] [Ec]>[Ec] [A=d]>[Ad] | [Ge]4 [Ed]4 | [Ec]3 [Ec] [Ec]>[EA] [FB]>[Fc] | [Fd]4 c2 B2 | %14
w: ||||
 A2 G2 [Ac]3 [EB] | [EA]8 |] %16
w: ||
V:2
 x8 | E2- [EB]2 [Ec]4 | [EB]4 E2- [EB]2 | x8 | x8 | E2- [EB]2 [Ec]4 | x8 | x8 | x8 | x8 | x8 | x8 | %12
 x8 | z4 F4 | E4 z4 | x8 |] %16
V:3
 A,3 A, A,>A, A,>A, | A,2 G,2 A,4 | G,4 F,2 G,2 | A,6 z2 | A,3 A, A,>A, A,>A, | A,2 G,2 A,4 | %6
 D4 C2 B,2 | A,6 z2 | G,3 G, G,>G, G,>G, | B,4 G,4 | A,3 A, A,>A, B,>B, | B,4 B,4 | %12
 A,3 A, A,>C B,>=A, | B,4 =A,2 B,2 | C2 B,2 E3 D | C8 |] %16
V:4
 A,,3 A,, A,,>A,, A,,>A,, | C,2 B,,2 A,,4 | E,4 E,4 | A,,6 z2 | A,,3 A,, A,,>A,, A,,>A,, | %5
 C,2 E,2 z4 | D,4 E,4 | A,,6 z2 | E,3 E, E,>E, E,>E, | E,4 E,4 | z4 z2 F,>F, | E,4 G,4 | %12
 z4 A,,>A,, D,>C, | B,,4 C,2 D,2 | E,4 E,4 | A,,8 |] %16

